Font-Source/Egyptian2/svg-my/13820.svg

<?xml version="1.0" encoding="UTF-8" standalone="no"?>
<svg
   width="600"
   height="1000"
   version="1.1"
   id="svg1"
   sodipodi:docname="13820.svg"
   inkscape:version="1.4.2 (f4327f4, 2025-05-13)"
   xmlns:inkscape="http://www.inkscape.org/namespaces/inkscape"
   xmlns:sodipodi="http://sodipodi.sourceforge.net/DTD/sodipodi-0.dtd"
   xmlns="http://www.w3.org/2000/svg"
   xmlns:svg="http://www.w3.org/2000/svg">
  <defs
     id="defs1" />
  <sodipodi:namedview
     id="namedview1"
     pagecolor="#ffffff"
     bordercolor="#666666"
     borderopacity="1.0"
     inkscape:showpageshadow="2"
     inkscape:pageopacity="0.0"
     inkscape:pagecheckerboard="0"
     inkscape:deskcolor="#d1d1d1"
     inkscape:zoom="1"
     inkscape:cx="584.5"
     inkscape:cy="188.5"
     inkscape:window-width="1680"
     inkscape:window-height="998"
     inkscape:window-x="-8"
     inkscape:window-y="-8"
     inkscape:window-maximized="1"
     inkscape:current-layer="svg1"
     showguides="true">
    <sodipodi:guide
       position="4.234596,17.107108"
       orientation="0.95257762,-0.30429571"
       id="guide1"
       inkscape:locked="false" />
    <sodipodi:guide
       position="4.029193,16.006737"
       orientation="-0.95746447,0.28855121"
       id="guide2"
       inkscape:locked="false" />
  </sodipodi:namedview>
  <path
     style="fill:#000000;stroke:none;stroke-width:0.999998"
     d="m 438.4297,33.287444 -106.16943,272.957046 18.45409,6.07349 87.71534,-227.172204 80.70744,170.992344 15.76774,-5.25591 -8.75985,-19.27168 7.94227,-6.0735 13.19818,17.51971 13.0814,-8.75985 -13.0814,-17.63651 9.57742,-7.00788 13.19822,17.6365 10.51177,-13.19818 z m 10.51182,39.477738 99.16155,126.375488 -28.03154,19.27169 z"
     id="path3" />
  <path
     id="path1"
     style="fill:#000000;stroke:none;stroke-width:0.999998"
     d="m 239.28906,0 c -14.03791,0 -24.86677,12.92393 -32.4707,38.660156 L 149.82227,174.61328 c 12.28323,1.75472 23.92568,6.17828 35.03906,13.19727 -23.3966,5.84915 -42.95729,23.31482 -58.75,52.56054 -2.92454,4.09436 -4.08879,8.16925 -3.50391,12.26368 -6.43406,10.52845 -11.26539,19.02687 -14.48242,25.46093 -1.70665,3.41335 -4.29749,9.74668 -0.46875,10.51172 h 8.76172 l -0.81836,3.50391 c -3.50954,2.3396 -3.50954,5.01886 0,7.94336 -4.15021,4.98004 -0.77299,6.37834 0.81641,7.00586 l 0.93554,11.44726 c -4.37276,20.83278 -24.410288,43.06297 -40.740232,40.4961 -7.285457,-8.74355 -17.17456,2.52424 -5.271484,9.39648 25.860773,14.93072 55.583166,-28.92714 67.035156,-45.57031 l 12.26367,-0.81836 c 0,6.43408 1.51291,13.41955 4.4375,21.02344 -0.58405,7.60439 -4.42637,12.26087 -11.44531,14.01562 -21.05695,4.09437 -31.88385,12.76909 -32.46875,25.92969 -0.58485,13.16056 4.65419,22.99952 15.76758,29.43359 -11.6983,36.84961 -14.60891,73.91127 -8.75977,161.64844 -11.11339,4.67931 -23.106481,5.08703 -35.974608,1.28516 -12.868093,-3.80187 -23.172008,-7.29474 -31.068359,-10.51172 -6.909309,-2.81483 -10.941706,-5.20597 -12.029297,-7.125 -0.06288,-0.13353 -0.20127,-0.45601 -0.234375,-0.58399 l -0.117187,-0.11718 c -0.2925,-2.04726 -1.862545,-2.97994 -4.78711,-2.6875 -2.92457,0.29267 -6.011482,0.0613 -9.228515,-0.81641 -3.217031,-0.87739 -7.291927,-1.81023 -12.263672,-2.6875 -4.971778,-0.87739 -8.6388371,0.86898 -10.9785158,5.25586 -2.33963859,4.38686 -1.93187682,9.04578 1.2851563,14.01758 3.217033,4.97198 7.0584606,8.46445 11.4453125,10.51172 4.386852,2.04699 7.471814,2.56994 9.226562,1.40039 34.509933,12.86806 64.899553,21.01785 91.220708,24.52734 6.43408,67.85004 15.1068,116.42657 25.92773,188.37109 10.82092,71.94441 15.30357,90.71663 13.54883,112.94336 0,15.79266 -5.41337,25.45715 -16.23438,28.9668 -10.82091,3.50977 -31.95174,15.50072 -63.537106,35.97266 H 58.486328 c -13.453063,0 -14.035137,9.08248 -1.751953,27.21484 H 217.33008 c 15.79266,-5.84918 16.95686,-26.34073 3.5039,-61.43555 10.52851,-73.11422 12.27673,-90.31442 5.25782,-108.15429 -17.15596,-43.60529 9.75205,-46.71156 5.25586,-105.91211 -2.99019,-39.37633 -1.57051,-61.56758 8.75976,-74.98438 16.42972,-21.33866 12.64582,-57.85346 -7.82617,-106.98633 12.8681,-80.71822 23.69699,-104.15757 32.4707,-120.53515 8.7737,-16.3776 17.50556,-25.11138 26.2793,-26.28125 34.50997,1.16989 72.23179,-0.57641 113.17578,-5.25586 7.60365,-32.16992 12.26088,-59.58819 14.01563,-82.10742 1.75474,-22.5192 6.18026,-46.32912 13.19922,-71.48047 10.52848,-12.2832 18.09587,-26.83828 22.77539,-43.80078 1.16993,-4.09442 1.75195,-10.26431 1.75195,-18.45313 0,-8.18877 0.34999,-15.52491 0.93555,-21.95898 0,-0.98162 -0.11989,-4.31836 -1.75,-4.31836 -1.75471,-1.75471 -3.50109,-1.52332 -5.25586,0.8164 -3.04965,-4.5741 -5.17362,-2.03564 -6.19141,0 -1.28258,-1.60338 -3.67247,-3.86012 -6.07031,0.93555 -3.62035,-3.62035 -6.19336,-0.61312 -6.19336,3.50391 0.58483,9.94357 0.41009,17.51309 -0.4668,22.77734 -0.87733,5.26419 -3.38021,13.76264 -7.47461,25.46094 -0.80422,1.60856 -1.76771,2.76861 -2.57031,3.26953 -0.2921,0.14579 -0.6411,0.23437 -0.93359,0.23437 -0.10628,-0.0137 -0.43121,-0.074 -0.58594,-0.11523 l -0.11524,-0.11719 h -0.11718 c -0.68108,-0.50632 -1.34986,-1.66299 -1.75196,-3.27148 0,-2.92455 0.81561,-7.00139 2.57032,-12.26563 1.75399,-5.26553 2.27783,-9.45631 1.40039,-12.38086 -0.87732,-2.92455 -2.79812,-3.74015 -5.72266,-2.57031 -2.33965,0.58483 -3.32955,3.32117 -3.03711,8.29297 0.29267,4.97175 -1.80456,12.07446 -6.19141,21.14063 -4.38848,9.06432 -5.14529,19.37008 -2.2207,31.06835 -15.79277,56.15184 -26.61959,96.55276 -32.46875,121.11915 -24.56641,-4.67933 -51.4613,-7.35851 -80.70703,-7.94336 -18.13233,-9.94353 -37.45963,-14.01841 -57.93164,-12.26368 -6.43407,-2.33964 -9.3447,-11.07152 -8.75977,-26.27929 13.45303,-7.60388 24.62864,-17.44283 33.40235,-29.4336 8.7737,-11.9907 12.26839,-25.72824 10.51367,-41.22851 -1.75472,-15.5002 -6.76236,-27.319 -14.95117,-35.50782 6.43406,0.58484 14.58382,1.40048 24.52734,2.57032 L 308.55078,64.939453 C 314.39992,39.788119 311.48929,23.720128 299.79102,16.701172 288.09275,9.6821761 277.61449,9.1000428 268.25586,14.949219 262.99161,5.0056547 253.32701,0 239.28906,0 Z m 1.48242,19.5 c 2.06442,0.03471 4.19098,0.637481 6.45899,1.523438 9.65424,3.771257 11.92336,13.171299 6.07422,30.71875 l -42.64844,133.570312 -17.03516,-4.625 -7.00781,-7.00977 c -6.43405,-4.09443 -11.32453,-6.65439 -14.83398,-7.82421 L 221.76953,42.164062 C 228.9493,24.399183 234.57822,19.395875 240.77148,19.5 Z m 37.76172,11.410156 c 2.80794,0.01192 5.56578,0.861199 8.17578,1.560547 9.867,2.643853 12.27203,12.235755 7.00782,29.783203 L 263,191.31445 c -4.09438,-1.75476 -10.26627,-1.52132 -18.45508,0.81836 h -8.75976 L 219.86523,187.81055 260.3125,53.494141 C 265.93553,34.909397 272.35574,30.88393 278.5332,30.910156 Z M 232.28125,204.86328 c 16.37759,7.89636 24.52734,20.6459 24.52734,38.19336 -10e-6,17.54741 -11.99278,35.12833 -35.97461,52.67578 -16.37758,2.92456 -23.71176,-3.82752 -21.95703,-20.20508 0.58485,-1.75474 2.50568,-6.41173 5.72266,-14.01562 3.21733,-7.60389 3.04219,-13.36798 -0.4668,-17.16992 -3.50989,-3.80165 -8.22362,-5.14052 -14.36523,-3.97071 -6.14158,1.16982 -9.57726,9.08611 -10.16211,23.70899 h -4.32227 l -0.93359,-15.76758 c -8.18879,-4.67934 -19.01764,-7.93862 -32.4707,-9.69336 12.28319,-23.98151 26.37137,-37.54665 42.16406,-40.76367 18.73234,-3.81585 35.06579,0.65684 48.23828,7.00781 z m -32.4707,45.66797 c 1.82756,4.35708 -0.16537,10.38439 -5.72266,17.98828 -5.55664,7.60388 -10.0393,11.32813 -13.54883,11.32813 -3.6741,0 -1.89798,-3.96864 0,-7.00586 l 4.32227,-4.32032 c 0.58483,-12.2832 2.884,-19.39426 6.6582,-21.49218 4.43908,-2.4675 6.92199,0.23808 8.29102,3.50195 z m -66.69141,-3.9707 c 16.96251,1.16988 28.605,4.66251 35.03906,10.51172 v 15.76757 h 7.94336 c -3.50955,4.09438 -4.49944,7.58716 -3.03711,10.51172 1.46233,2.92455 5.94497,3.50673 13.54883,1.75196 0,16.37759 7.91628,24.64453 23.70899,24.64453 0,9.35864 1.74632,19.60541 5.25585,30.71875 -12.86818,11.69834 -27.18776,12.28037 -42.98046,1.75195 -6.43413,-8.7738 -10.27746,-19.36913 -11.44727,-31.65234 l -19.27148,3.5039 c -8.77371,1.75472 -14.18724,1.75472 -16.23438,0 -2.04721,-1.75471 -3.03711,-4.08322 -3.03711,-7.00781 l 14.01563,-7.82617 v -3.50391 l -15.76758,-3.62109 v -3.50391 h 8.75976 c -3.50952,-5.8491 -7.00219,-7.59545 -10.51171,-5.25586 -2.19343,1.46233 -3.84713,2.06232 -4.9043,1.98633 -0.8556,-0.0615 -1.2832,-0.96473 -1.2832,-1.04883 3.50643,-8.77763 7.34898,-16.11178 11.44336,-21.96094 10.52845,-8.1888 21.35731,-8.77089 32.4707,-1.75195 l 7.00781,0.93555 0.81836,-0.93555 c -7.60444,-4.09477 -14.00921,-6.83066 -19.27344,-8.29297 -5.26425,-1.46229 -10.85201,-1.05448 -16.70117,1.28516 z m 4.78906,12.49804 c -4.67932,0.14579 -7.76428,2.73721 -9.22656,7.70899 2.9246,6.43402 12.35574,6.08344 28.14844,-0.93555 -7.89636,-4.67932 -14.24256,-6.91966 -18.92188,-6.77344 z m -12.96484,39.24414 c 2.22994,-0.1096 4.95876,-0.14633 8.17578,0 l -14.94922,4.4375 c -1.0429,-1.31075 -1.00866,-2.00007 -0.11914,-3.0332 1.11342,-0.76811 3.47598,-1.23247 6.89063,-1.40039 z m 108.85547,50.68946 c 6.47063,-0.32883 14.67196,1.54209 24.76172,5.49023 -15.7927,20.47202 -37.09982,30.71875 -64.00586,30.71875 -27.49097,0 -45.07185,-5.58975 -52.67578,-16.70312 l 27.21484,-12.26367 c 17.54741,8.77372 37.10815,6.67673 58.75,-6.19141 1.75473,-0.58483 3.7982,-0.9411 5.95508,-1.05078 z m 26.51367,37.02539 c -18.13232,39.77417 -33.84971,76.37088 -47.30273,160.01367 19.30216,46.2082 21.28003,77.75989 6.07226,94.72266 -11.49298,25.69722 -10.16392,58.65205 -7.82422,82.92578 5.92287,61.45095 -25.10638,61.71458 -6.1914,107.54687 7.60389,18.4248 6.09098,35.62685 -4.4375,108.15625 8.77369,25.73628 8.77369,40.63793 0,44.73242 H 94.458984 v -3.5039 c 22.811656,-12.8683 41.964616,-22.76418 57.464846,-29.78321 15.50024,-7.01891 23.35937,-16.91492 23.35937,-29.7832 0,-20.47185 -4.01574,-36.10008 -11.91211,-103.36523 -7.89636,-67.2657 -15.46592,-128.47403 -22.77734,-226.44727 -7.31142,-97.97315 -3.99304,-145.57306 10.04492,-192.95117 5.2642,4.67937 21.09876,7.00781 47.41992,7.00781 26.90608,-1e-5 47.63107,-6.40339 62.25391,-19.27148 z"
     sodipodi:nodetypes="scccccscccccccsccccsccssccccccsscccscscscccscscsccsccsccccccccccccccccccccccccsscccscsssccccccsssccccccscsccccsccccscscsccssccccsccccccscccccccscccccsccccccccccccccsccccccccsccccsssscsc" />
</svg>

<?xml version="1.0" encoding="UTF-8" standalone="no"?>
<svg
   width="600"
   height="1000"
   version="1.1"
   id="svg1"
   sodipodi:docname="13820.svg"
   inkscape:version="1.4.2 (f4327f4, 2025-05-13)"
   xmlns:inkscape="http://www.inkscape.org/namespaces/inkscape"
   xmlns:sodipodi="http://sodipodi.sourceforge.net/DTD/sodipodi-0.dtd"
   xmlns="http://www.w3.org/2000/svg"
   xmlns:svg="http://www.w3.org/2000/svg">
  <defs
     id="defs1" />
  <sodipodi:namedview
     id="namedview1"
     pagecolor="#ffffff"
     bordercolor="#666666"
     borderopacity="1.0"
     inkscape:showpageshadow="2"
     inkscape:pageopacity="0.0"
     inkscape:pagecheckerboard="0"
     inkscape:deskcolor="#d1d1d1"
     inkscape:zoom="0.35355339"
     inkscape:cx="-202.23254"
     inkscape:cy="32.526912"
     inkscape:window-width="1680"
     inkscape:window-height="998"
     inkscape:window-x="-8"
     inkscape:window-y="-8"
     inkscape:window-maximized="1"
     inkscape:current-layer="svg1"
     showguides="true">
    <sodipodi:guide
       position="4.234596,17.107108"
       orientation="0.95257762,-0.30429571"
       id="guide1"
       inkscape:locked="false" />
    <sodipodi:guide
       position="4.029193,16.006737"
       orientation="-0.95746447,0.28855121"
       id="guide2"
       inkscape:locked="false" />
    <sodipodi:guide
       position="283.61895,820.45306"
       orientation="0,-1"
       id="guide3"
       inkscape:locked="false" />
    <sodipodi:guide
       position="139,811.61968"
       orientation="0,-1"
       id="guide4"
       inkscape:locked="false" />
    <sodipodi:guide
       position="118.16992,425.9375"
       orientation="1,0"
       id="guide5"
       inkscape:locked="false" />
    <sodipodi:guide
       position="179.60547,735.91992"
       orientation="0,-1"
       id="guide15"
       inkscape:locked="false" />
  </sodipodi:namedview>
  <path
     id="path3"
     style="fill:#000000;stroke:none;stroke-width:0.999998"
     d="M 227.02148 0 C 212.98357 0 202.15471 12.92393 194.55078 38.660156 L 129.66602 188.38086 C 136.424 206.57189 132.4753 230.86758 126.11133 240.37109 C 123.18679 244.46545 122.02254 248.54034 122.60742 252.63477 C 116.17336 263.16322 111.34203 271.66164 108.125 278.0957 C 106.41835 281.50905 103.82751 287.84238 107.65625 288.60742 L 116.41797 288.60742 L 115.59961 292.11133 C 112.09007 294.45093 112.09007 297.13019 115.59961 300.05469 C 111.4494 305.03473 114.82662 306.43303 116.41602 307.06055 L 117.35156 318.50781 C 112.9788 339.34059 97.544578 362.64803 74.361328 359.00391 C 67.075871 350.26036 57.186769 361.52815 69.089844 368.40039 C 99.487396 385.95042 126.92301 339.47325 138.375 322.83008 L 150.63867 322.01172 C 150.63867 328.4458 152.15158 335.43127 155.07617 343.03516 C 154.49212 350.63955 150.6498 355.29603 143.63086 357.05078 C 122.57391 361.14515 111.74701 369.81987 111.16211 382.98047 C 110.57726 396.14103 115.8163 405.97999 126.92969 412.41406 C 115.23139 449.26367 111.89669 477.61055 118.16992 571.70898 C 106.25076 576.72756 93.64291 577.16346 79.841797 573.08594 C 66.040721 569.00842 54.988396 565.26272 46.519531 561.8125 C 39.109272 558.79358 34.785586 556.23003 33.619141 554.17188 C 33.551701 554.02867 33.402693 553.68218 33.367188 553.54492 L 33.242188 553.41992 C 32.92848 551.22423 31.244028 550.22347 28.107422 550.53711 C 24.97081 550.851 21.659264 550.60341 18.208984 549.66211 C 14.758707 548.7211 10.388855 547.72018 5.0566406 546.7793 C -0.27560921 545.8383 -4.2074831 547.71108 -6.7167969 552.41602 C -9.2260678 557.12095 -8.7901234 562.11694 -5.3398438 567.44922 C -1.8895641 572.78168 2.2306324 576.5289 6.9355469 578.72461 C 11.640461 580.92001 14.950057 581.48091 16.832031 580.22656 C 53.844059 594.0276 86.43647 602.76731 114.66602 606.53125 C 121.56659 679.30066 129.77282 722.95782 140.59375 794.90234 C 151.41467 866.84675 155.89732 885.61897 154.14258 907.8457 C 154.14258 923.63836 148.72921 933.30285 137.9082 936.8125 C 127.08729 940.32227 105.95646 952.31322 74.371094 972.78516 L 58.486328 972.78516 C 45.033265 972.78516 44.451191 981.86764 56.734375 1000 L 217.33008 1000 C 233.12274 994.15082 234.28694 973.65927 220.83398 938.56445 C 231.36249 865.45023 233.11071 848.25003 226.0918 830.41016 C 208.93584 786.80487 235.84385 783.6986 231.34766 724.49805 C 228.35747 685.12172 229.77715 662.93047 240.10742 649.51367 C 256.53714 628.17501 252.75324 591.66021 232.28125 542.52734 C 245.14935 461.80912 255.97824 438.36977 264.75195 421.99219 C 273.52565 405.61459 282.25751 396.88081 291.03125 395.71094 C 325.54122 396.88083 363.26304 395.13453 404.20703 390.45508 C 411.81068 358.28516 416.46791 330.86689 418.22266 308.34766 C 419.9774 285.82846 424.40291 262.01854 431.42188 236.86719 C 441.95036 224.58399 449.51775 210.02891 454.19727 193.06641 C 455.3672 188.97199 455.94922 182.8021 455.94922 174.61328 C 455.94922 166.42451 456.29921 159.08837 456.88477 152.6543 C 456.88477 151.67268 456.76488 148.33594 455.13477 148.33594 C 453.38006 146.58123 451.63368 146.81262 449.87891 149.15234 C 448.63999 147.29412 447.55408 146.60901 446.63281 146.58789 C 445.28634 146.55699 444.29181 147.94368 443.6875 149.15234 C 442.40492 147.54896 440.01503 145.29222 437.61719 150.08789 C 433.99684 146.46754 431.42383 149.47477 431.42383 153.5918 C 432.00866 163.53537 431.83392 171.10489 430.95703 176.36914 C 430.0797 181.63333 427.57682 190.13178 423.48242 201.83008 C 422.6782 203.43864 421.71471 204.59869 420.91211 205.09961 C 420.62001 205.2454 420.27101 205.33398 419.97852 205.33398 C 419.87224 205.32028 419.54731 205.25998 419.39258 205.21875 L 419.27734 205.10156 L 419.16016 205.10156 C 418.47908 204.59524 417.8103 203.43857 417.4082 201.83008 C 417.4082 198.90553 418.22381 194.82869 419.97852 189.56445 C 421.73251 184.29892 422.25635 180.10814 421.37891 177.18359 C 420.50159 174.25904 418.58079 173.44344 415.65625 174.61328 C 413.3166 175.19811 412.3267 177.93445 412.61914 182.90625 C 412.91181 187.878 410.81458 194.98071 406.42773 204.04688 C 402.03925 213.1112 401.28244 223.41696 404.20703 235.11523 C 388.41426 291.26707 377.58744 331.66797 371.73828 356.23438 C 347.17187 351.55505 320.27698 348.87587 291.03125 348.29102 C 272.89892 338.34749 253.57162 334.27261 233.09961 336.02734 C 226.66554 333.6877 223.75491 324.95582 224.33984 309.74805 C 266.41269 283.23155 269.42969 236.15925 269.42969 188.38086 L 296.2832 64.939453 C 302.13234 39.788119 299.22171 23.720128 287.52344 16.701172 C 275.82517 9.6821756 265.34691 9.1000416 255.98828 14.949219 C 250.72403 5.0056537 241.05943 0 227.02148 0 z M 228.50391 19.5 C 230.56833 19.53471 232.69488 20.137481 234.96289 21.023438 C 244.61713 24.794694 246.88625 34.194737 241.03711 51.742188 L 197.4082 188.38086 L 150.4082 188.38086 L 209.50195 42.164062 C 216.68172 24.399183 222.31065 19.395875 228.50391 19.5 z M 266.26562 30.910156 C 269.07356 30.922076 271.83141 31.771355 274.44141 32.470703 C 284.30841 35.114556 286.71343 44.706458 281.44922 62.253906 L 251.42969 188.38086 L 207.42578 188.38086 L 248.04492 53.494141 C 253.66795 34.909397 260.08816 30.88393 266.26562 30.910156 z M 438.42969 33.287109 L 332.25977 306.24414 L 350.71484 312.31836 L 438.42969 85.146484 L 519.13672 256.13867 L 534.9043 250.88281 L 526.14453 231.61133 L 534.08789 225.53711 L 547.28516 243.05664 L 560.36719 234.29688 L 547.28516 216.66016 L 556.86328 209.65234 L 570.06055 227.28906 L 580.57227 214.08984 L 438.42969 33.287109 z M 448.94141 72.765625 L 548.10352 199.14062 L 520.07227 218.41211 L 448.94141 72.765625 z M 148.27148 202.38086 L 253.92773 202.38086 C 252.40378 249.01527 242.86743 284.1221 220.83398 295.73242 C 220.83398 283.09996 213.46662 272.33291 202.82227 265.33203 C 203.46375 264.0691 204.05915 262.79131 204.59961 261.51172 C 207.81694 253.90783 207.6418 248.14374 204.13281 244.3418 C 200.62292 240.54015 195.90919 239.20128 189.76758 240.37109 C 183.626 241.54091 180.19032 249.4572 179.60547 264.08008 L 175.2832 264.08008 L 174.34961 248.3125 C 166.16082 243.63316 155.33197 240.37388 141.87891 238.61914 C 146.26831 231.42979 149.27038 217.20377 148.27148 202.38086 z M 194.49609 246.07617 C 197.13132 245.94913 198.78377 248.08335 199.81055 250.53125 C 201.63811 254.88833 199.64518 260.91564 194.08789 268.51953 C 188.53125 276.12341 184.04859 279.84766 180.53906 279.84766 C 176.86496 279.84766 178.64108 275.87902 180.53906 272.8418 L 184.86133 268.52148 C 185.44616 256.23828 187.74533 249.12722 191.51953 247.0293 C 192.6293 246.41242 193.61768 246.11852 194.49609 246.07617 z M 133.11914 246.56055 C 150.08165 247.73043 161.72414 251.22306 168.1582 257.07227 L 168.1582 272.83984 L 176.10156 272.83984 C 172.59201 276.93422 171.60212 280.427 173.06445 283.35156 C 174.52678 286.27611 178.58588 287.36703 186.08203 284.04297 C 189.68812 282.4439 193.28486 279.24618 196.49219 275.24023 C 205.93137 282.02613 210.32227 289.14325 210.32227 309.74805 C 210.32227 319.10669 212.06859 329.35346 215.57812 340.4668 C 202.70998 352.16514 188.39036 352.74717 172.59766 342.21875 C 166.16353 333.44495 162.3202 322.84962 161.15039 310.56641 L 141.87891 314.07031 C 133.1052 315.82503 127.69167 315.82503 125.64453 314.07031 C 123.59732 312.3156 122.60742 309.98709 122.60742 307.0625 L 136.62305 299.23633 L 136.62305 295.73242 L 120.85547 292.11133 L 120.85547 288.60742 L 129.61523 288.60742 C 126.10571 282.75832 122.61304 281.01197 119.10352 283.35156 C 116.91009 284.81389 115.25639 285.41388 114.19922 285.33789 C 113.34362 285.27639 112.91602 284.37316 112.91602 284.28906 C 116.42245 275.51143 120.26498 268.17728 124.35938 262.32812 C 134.88783 254.13932 145.71669 253.55723 156.83008 260.57617 L 163.83789 261.51172 L 164.65625 260.57617 C 157.05181 256.4814 150.64704 253.74551 145.38281 252.2832 C 140.11856 250.82091 134.5308 251.22872 128.68164 253.56836 L 133.11914 246.56055 z M 137.9082 259.05859 C 133.22888 259.20438 130.14392 261.7958 128.68164 266.76758 C 131.60624 273.2016 141.03738 272.85102 156.83008 265.83203 C 148.93372 261.15271 142.58752 258.91237 137.9082 259.05859 z M 124.94336 298.30273 C 127.1733 298.19313 129.90212 298.1564 133.11914 298.30273 L 118.16992 302.74023 C 117.12702 301.42948 117.16126 300.74016 118.05078 299.70703 C 119.1642 298.93892 121.52676 298.47456 124.94141 298.30664 L 124.94336 298.30273 z M 233.79883 348.99219 C 240.26946 348.66336 248.47079 350.53428 258.56055 354.48242 C 242.76785 374.95444 221.46073 385.20117 194.55469 385.20117 C 167.06372 385.20117 149.48284 379.61142 141.87891 368.49805 L 169.09375 356.23438 C 186.64116 365.0081 206.2019 362.91111 227.84375 350.04297 C 229.59848 349.45814 231.64195 349.10187 233.79883 348.99219 z M 260.3125 386.01758 C 242.18018 425.79175 226.46279 462.38846 213.00977 546.03125 C 232.31193 592.23945 234.2898 623.79114 219.08203 640.75391 C 207.58905 666.45113 208.91811 699.40596 211.25781 723.67969 C 217.18068 785.13064 186.15143 785.39427 205.06641 831.22656 C 212.6703 849.65136 211.15739 866.85341 200.62891 939.38281 C 209.4026 965.11909 209.4026 980.02074 200.62891 984.11523 L 94.458984 984.11523 L 94.458984 980.61133 C 117.27064 967.74303 136.4236 957.84715 151.92383 950.82812 C 167.42407 943.80921 175.2832 933.9132 175.2832 921.04492 C 175.2832 900.57307 171.26746 884.94484 163.37109 817.67969 C 155.47473 750.41399 147.90517 689.20566 140.59375 591.23242 C 133.28233 493.25927 136.60071 445.65936 150.63867 398.28125 C 155.90287 402.96062 171.73743 405.28906 198.05859 405.28906 C 224.96467 405.28905 245.68966 398.88567 260.3125 386.01758 z " />
</svg>
